!!!COA:	Josquin des Prez
!!!CDT:	~1450-1521/08/27
!!!OTL:	Credo Vilayge I
!!!AGN:	Mass section; Credo
!!!SCT:	NJE 13.5
!!!SCA:	New Josquin Edition 13.5
!!!voices:	4
**kern	**kern	**kern	**kern
*staff4	*staff3	*staff2	*staff1
*Ivox	*Ivox	*Ivox	*Ivox
*I"Bassus	*I"Tenor	*I"Altus	*I"Superius
*I'B	*I'T	*I'A	*I'S
*>[A,B,C,D,E]	*>[A,B,C,D,E]	*>[A,B,C,D,E]	*>[A,B,C,D,E]
*>A	*>A	*>A	*>A
*clefF4	*clefGv2	*clefGv2	*clefG2
*k[b-]	*k[b-]	*k[b-]	*k[b-]
*M2/1	*M2/1	*M2/1	*M2/1
*met(C|)	*met(C|)	*met(C|)	*met(C|)
!!incipit: 6
=1-	=1-	=1-	=1-
0D	0r	0A	0r
=2	=2	=2	=2
1GG	0r	0B-	0r
[1D	.	.	.
=3	=3	=3	=3
1D]	0r	0A	0r
[1C	.	.	.
=4	=4	=4	=4
1C]	0r	1G	0r
1BB-	.	1G	.
=5	=5	=5	=5
0AA	0A	2A/	0r
.	.	1F#i	.
.	.	4E/	.
.	.	4F#i/	.
=6	=6	=6	=6
0GG	0B-	0G	0r
=7	=7	=7	=7
0r	1A	0D	0a
.	1F	.	.
=8	=8	=8	=8
0GG	1G	1d	0b-
.	[1D	[1d	.
=9	=9	=9	=9
[0D	2D/]	2d\]	0a
.	2E/	2d\	.
.	2F/	1d	.
.	2G/	.	.
=10	=10	=10	=10
1D]	1A	1.d	1f
1G	1B-	.	1g
.	.	2B-\	.
=11	=11	=11	=11
2F\	1A	2c\	0a
1D	.	1d	.
.	1d	.	.
2E\	.	4c\	.
.	.	4B-\	.
=12	=12	=12	=12
1F	1c	1A	1a
1BB-	1B-	1d	[1g
=13	=13	=13	=13
1C	0A	1r	1g]
1D	.	[1d	1f#i
=14	=14	=14	=14
1GG	0G	1d]	[0g
[1C	.	[1e-i	.
=15	=15	=15	=15
2C/]	0r	1e-]	0g]
2BB-/	.	.	.
1GG	.	1d	.
=16	=16	=16	=16
0AA	1E	2c\	0r
.	.	1c	.
.	1F	.	.
.	.	4B-\	.
.	.	4A/	.
=17	=17	=17	=17
0GG	0G	1B-	0r
.	.	1G	.
=18	=18	=18	=18
1r	0G	1.B-	0r
[1GG	.	.	.
.	.	2c\	.
=19	=19	=19	=19
2GG/]	0G	1.d	0r
2AA/	.	.	.
2BB-/	.	.	.
2C/	.	4c\	.
.	.	4B-\	.
=20	=20	=20	=20
1D	1F	2A/	0r
.	.	1B-	.
1GG	1G	.	.
.	.	4A/	.
.	.	4G/	.
=21	=21	=21	=21
2r	0A	2F/	0r
1D	.	2D/	.
.	.	1E	.
2C/	.	.	.
=22	=22	=22	=22
1D	1A	1F	0r
2BB-/	[1G	2D/	.
[2C/	.	[2E/	.
=23	=23	=23	=23
4C/]	1G]	4E/]	0r
4BB-/	.	4D/	.
2GG/	.	1D	.
1AA	1F#i	.	.
.	.	2C/	.
=24	=24	=24	=24
0GG	[0G	0D	1r
.	.	.	[1g
=25	=25	=25	=25
1.C	0G]	1.E	1g]
.	.	.	1g
2C/	.	2E/	.
=26	=26	=26	=26
1C	1r	1E	1g
1C	[1c	1E	1g
=27	=27	=27	=27
1FF	1c]	0F	0a
1F	1c	.	.
=28	=28	=28	=28
1E	1c	1r	1g
1F	1c	1F	1f
=29	=29	=29	=29
0C	0c	1G	0e
.	.	1A	.
=30	=30	=30	=30
0BB-	0d	0B-	0d
=31	=31	=31	=31
1F	1c	1A	0r
1G	1B-	[1G	.
=32	=32	=32	=32
0D	0A	2G/]	0a
.	.	4F#i/	.
.	.	4E/	.
.	.	1F#i	.
=33	=33	=33	=33
1GG	0G	0G	0b-
1G	.	.	.
=34	=34	=34	=34
1F	0d	0D	0a
2D\	.	.	.
2F\	.	.	.
=35	=35	=35	=35
2E-\	0e-	1r	1g
1C	.	.	.
.	.	1c	1g
4BB-/	.	.	.
4C/	.	.	.
=36	=36	=36	=36
1D	1d	2A/	1f
.	.	2B-\	.
1E-i	2B-\	1G	1g
.	[2c\	.	.
=37	=37	=37	=37
1F	4c\]	2r	0a
.	4B-\	.	.
.	4A/	2c\	.
.	4G/	.	.
1D	1F	2d\	.
.	.	2f\	.
=38	=38	=38	=38
1r	1G	2e\	1g
.	.	2.d\	.
1GG	1B-	.	[1g
.	.	4c\	.
.	.	[2d\	.
=39	=39	=39	=39
0D	0A	2d\]	1g]
.	.	4c\	.
.	.	4B-\	.
.	.	1A	1f#i
=40	=40	=40	=40
0GG	[0G	1B-	[0g
.	.	2G/	.
.	.	2B-\	.
=41	=41	=41	=41
0r	0G]	2c\	0g]
.	.	1d	.
.	.	[2G/	.
=42	=42	=42	=42
1E	0r	2G/]	0r
.	.	1c	.
1F	.	.	.
.	.	4B-\	.
.	.	4A/	.
=43	=43	=43	=43
0G	0r	1B-	0r
.	.	1G	.
=44	=44	=44	=44
0A	0r	0r	1e
.	.	.	1f
=45	=45	=45	=45
1G	1E	0r	1g
1F	1F	.	1a
=46	=46	=46	=46
0E	0G	1Bni	2g/
.	.	.	1g
.	.	1c	.
.	.	.	4f/
.	.	.	4e/
=47	=47	=47	=47
0D	0A	[0d	1.f
.	.	.	4g/
.	.	.	4a/
=48	=48	=48	=48
0r	1G	0d]	1b-
.	1F	.	1a
=49	=49	=49	=49
1r	0E	0e	2r
.	.	.	2.g/
1C	.	.	.
.	.	.	4e/
.	.	.	2g/
=50	=50	=50	=50
2D\	1F	1d	2.f/
4C/	.	.	.
4BB-/	.	.	4g/
1AA	1F	1c	1a
=51	=51	=51	=51
0GG	0G	0Bni	1d
.	.	.	1g
=52	=52	=52	=52
0r	0A	1c	2e/
.	.	.	2.a/
.	.	1A	.
.	.	.	4g/
.	.	.	4f/
.	.	.	4e/
=53	=53	=53	=53
0r	1r	1Bni	2d/
.	.	.	2g/
.	1A	1c	2a/
.	.	.	2cc\
=54	=54	=54	=54
0r	0B-	0d	2b-\
.	.	.	1a
.	.	.	2g/
=55	=55	=55	=55
0r	1.A	1e	1a
.	.	[1c	1r
.	2A/	.	.
=56	=56	=56	=56
1r	1A	2c\]	1a
.	.	2c\	.
1GG	1G	2d\	1b-
.	.	2e\	.
=57	=57	=57	=57
1D	1F	1.f	1.a
[1F	1D	.	.
.	.	4e\	2a/
.	.	4d\	.
=58	=58	=58	=58
2F\]	1F	2c\	1a
2D\	.	1d	.
1E	1G	.	1g
.	.	2c#i\	.
=59	=59	=59	=59
2D\	2A/	2d\	2f/
4C/	2B-\	2D/	2g/
4BB-/	.	.	.
1AA	1c	2E/	1a
.	.	2F/	.
=60	=60	=60	=60
0GG	1d	1G	2b-\
.	.	.	2g/
.	1B-	[1d	[1g
=61	=61	=61	=61
0D	0A	0d]	2g/]
.	.	.	2f#i/
.	.	.	2f#i/
.	.	.	2e/
=62	=62	=62	=62
0GG	0G	1.B-	[0g
.	.	2G/	.
=63	=63	=63	=63
0r	1r	0G	0g]
.	1E	.	.
=64	=64	=64	=64
0r	1F	1r	0r
.	1G	1B-	.
=65	=65	=65	=65
0r	2E/	2c\	0r
.	2F/	1d	.
.	1G	.	.
.	.	2B-\	.
=66	=66	=66	=66
0r	1A	1c	1e
.	1r	1d	1f
=67	=67	=67	=67
0r	0r	2r	1g
.	.	1e	.
.	.	.	2.e/
.	.	[2c\	.
.	.	.	4f/
=68	=68	=68	=68
1r	0r	2c\]	2g/
.	.	4B-\	1a
.	.	4A/	.
1E	.	1B-	.
.	.	.	2g/
=69	=69	=69	=69
1F	0r	1A	1a
1G	.	1r	1r
=70	=70	=70	=70
2C/	1E	0r	0r
2E\	.	.	.
1D	1F	.	.
=71	=71	=71	=71
2GG/	1G	0r	0r
1C	.	.	.
.	2E/	.	.
2D\	2F/	.	.
=72	=72	=72	=72
2C/	2G/	0r	0r
2AA/	1A	.	.
1BB-	.	.	.
.	2G/	.	.
=73	=73	=73	=73
2AA/	1A	0r	0r
1D	.	.	.
.	1r	.	.
2E\	.	.	.
=74	=74	=74	=74
2F\	1A	0r	0r
1D	.	.	.
.	1B-	.	.
2G\	.	.	.
=75	=75	=75	=75
2.F\	1A	0r	0r
4D\	.	.	.
2E\	2r	.	.
[2D\	2A/	.	.
=76	=76	=76	=76
2D\]	2F/	0r	0r
2BB-/	2G/	.	.
2C/	1A	.	.
2D\	.	.	.
=77	=77	=77	=77
2BB-/	2G/	0r	0r
2C/	1G	.	.
1AA	.	.	.
.	2F#i/	.	.
=78	=78	=78	=78
0GG	1G	0r	1r
.	1r	.	1g
=79	=79	=79	=79
0r	1B-	0r	1g
.	2c\	.	2a/
.	[2d\	.	[2b-\
=80	=80	=80	=80
0r	2d\]	0r	2b-\]
.	4c\	.	4a/
.	4B-\	.	4g/
.	1A	.	2.f#i/
.	.	.	4e/
=81	=81	=81	=81
1r	0G	1r	0g
1GG	.	1G	.
=82	=82	=82	=82
1BB-	0r	1G	0r
2C/	.	2A/	.
[2D\	.	[2B-\	.
=83	=83	=83	=83
2D\]	0r	2B-\]	0r
4C/	.	4A/	.
4BB-/	.	4G/	.
1AA	.	2.F#i/	.
.	.	4E/	.
=84	=84	=84	=84
0GG	1r	0G	0r
.	1G	.	.
=85	=85	=85	=85
0r	1G	0r	0r
.	1A	.	.
=86	=86	=86	=86
0r	2G/	0r	1g
.	2F/	.	.
.	1E	.	1g
=87	=87	=87	=87
0r	2F/	0r	1a
.	2D/	.	.
.	2E/	.	2g/
.	2F/	.	2f/
=88	=88	=88	=88
0r	1G	0r	1e
.	2A/	.	2f/
.	2B-\	.	2d/
=89	=89	=89	=89
0r	2c\	0r	2e/
.	2d\	.	2f/
.	1B-	.	1g
=90	=90	=90	=90
0r	1A	0r	0a
.	2r	.	.
.	2D/	.	.
=91	=91	=91	=91
0r	2.F/	0r	2r
.	.	.	2a/
.	4G/	.	.
.	2A/	.	2.f/
.	2B-\	.	.
.	.	.	4g/
=92	=92	=92	=92
0r	2A/	0r	1a
.	2.d\	.	.
.	.	.	2b-\
.	8c\L	.	.
.	8B-\J	.	.
.	2c\	.	[2a/
=93	=93	=93	=93
0r	2F/	0r	4a/]
.	.	.	4g/
.	2G/	.	1g
.	1A	.	.
.	.	.	2f#i/
=94	=94	=94	=94
0r	[0G	0r	[0g
=95	=95	=95	=95
0r	0G]	0r	0g]
=96	=96	=96	=96
1E	0r	0r	0r
1F	.	.	.
=97	=97	=97	=97
1.G	0r	0r	0r
2F\	.	.	.
=98	=98	=98	=98
1G	0r	1E	0r
1A	.	1F	.
=99	=99	=99	=99
1G	0r	1.G	0r
[1C	.	.	.
.	.	2F/	.
=100	=100	=100	=100
2C/]	0r	1G	1e
2E\	.	.	.
1D	.	1A	1f
=101	=101	=101	=101
0GG	0r	2G/	1.g
.	.	1B-	.
.	.	2A/	2f/
=102	=102	=102	=102
0r	1E	2G/	1g
.	.	4F/	.
.	.	4E/	.
.	1F	1D	1a
=103	=103	=103	=103
0r	0G	0r	1b-
.	.	.	[1g
=104	=104	=104	=104
0r	0A	0r	2g/]
.	.	.	2f#i/
.	.	.	2f#i/
.	.	.	2e/
=105	=105	=105	=105
1r	0G	0r	[0g
1GG	.	.	.
=106	=106	=106	=106
1C	0E	0r	0g]
1C	.	.	.
=107	=107	=107	=107
2D\	1F	1r	0r
1D	.	.	.
.	1D	1d	.
4C/	.	.	.
4BB-/	.	.	.
=108	=108	=108	=108
1AA	1E	1c	0r
1AA	1F	1A	.
=109	=109	=109	=109
1GG	0G	0B-	0r
1r	.	.	.
=110	=110	=110	=110
1AA	1E	0A	0r
1D	1F	.	.
=111	=111	=111	=111
2.C/	0G	1r	0r
4D\	.	.	.
1BB-	.	1d	.
=112	=112	=112	=112
1AA	0A	1c	0r
1D	.	1A	.
=113	=113	=113	=113
1BB-	0r	2B-\	0r
.	.	2G/	.
1C	.	[1G	.
=114	=114	=114	=114
0AA	0A	2G/]	0r
.	.	2F#i/	.
.	.	2F#i/	.
.	.	2E/	.
=115	=115	=115	=115
0GG	0B-	0G	0r
=116	=116	=116	=116
0r	1A	0D	0a
.	1F	.	.
=117	=117	=117	=117
0GG	1G	1.d	0b-
.	[1D	.	.
.	.	2d\	.
=118	=118	=118	=118
0r	2D/]	1d	1a
.	2E/	.	.
.	2F/	1d	1a
.	2G/	.	.
=119	=119	=119	=119
1D	2A/	1d	1f
.	1B-	.	.
1GG	.	2d\	1g
.	4A/	[2d\	.
.	4G/	.	.
=120	=120	=120	=120
1.D	1F	2d\]	0a
.	.	4c\	.
.	.	4B-\	.
.	1F	1A	.
2D\	.	.	.
=121	=121	=121	=121
1BB-	1G	1r	1g
1GG	1B-	1d	[1g
=122	=122	=122	=122
1C	0A	1c	2g/]
.	.	.	4f#i/
.	.	.	4e/
1D	.	2A/	1f#i
.	.	[2d\	.
=123	=123	=123	=123
2GG/	[0Gl	4d\]	0g
.	.	4c\	.
1C	.	1e-i	.
4BB-/	.	4d\	.
4AA/	.	4c\	.
=124	=124	=124	=124
0GGl	0G]	0dl	0gl
!!LO:LB:i:g=z
=125||	=125||	=125||	=125||
*>B	*>B	*>B	*>B
*clefF4	*clefGv2	*clefGv2	*clefG2
*k[b-]	*k[b-]	*k[b-]	*k[b-]
*M2/1	*M2/1	*M2/1	*M2/1
*met(C|)	*met(C|)	*met(C|)	*met(C|)
!!section: Qui propter nos homines
!!!OMD: Qui propter nos homines
1E	0r	0r	0r
1F	.	.	.
=126	=126	=126	=126
2G\	0r	1E	0r
4F\	.	.	.
4E\	.	.	.
1D	.	1F	.
=127	=127	=127	=127
2C/	1E	1G	0r
2E\	.	.	.
1D	1F	1A	.
=128	=128	=128	=128
1GG	0G	2G/	0r
.	.	1B-	.
2r	.	.	.
2GG/	.	4A/	.
.	.	4G/	.
=129	=129	=129	=129
2D\	0A	1F	0r
1F	.	.	.
.	.	2D/	.
4E\	.	2F/	.
4D\	.	.	.
=130	=130	=130	=130
2E\	1G	2C/	0r
1C	.	2E/	.
.	1F	1D	.
2BBni/	.	.	.
=131	=131	=131	=131
1C	[0E	2C/	0r
.	.	1G	.
2r	.	.	.
2G\	.	[2E/	.
=132	=132	=132	=132
2.E\	0E]	4E/]	0r
.	.	4F/	.
.	.	2G/	.
4F\	.	.	.
2G\	.	2C/	.
2C/	.	2G/	.
=133	=133	=133	=133
2D\	1F	2F/	0r
1F	.	1D	.
.	1D	.	.
4E\	.	4E/	.
4D\	.	4F/	.
=134	=134	=134	=134
2.C/	1E	1G	0r
4BB-/	.	.	.
1AA	1F	1A	.
=135	=135	=135	=135
0GG	0G	1B-	0r
.	.	2A/	.
.	.	[2G/	.
=136	=136	=136	=136
0r	1E	2G/]	0r
.	.	4F/	.
.	.	4E/	.
.	1F	1D	.
=137	=137	=137	=137
2.GG/	0G	2r	0r
.	.	1D	.
4AA/	.	.	.
2BB-/	.	.	.
[2C/	.	2C/	.
=138	=138	=138	=138
4C/]	0G	1.E	0r
4BB-/	.	.	.
2C/	.	.	.
2GG/	.	.	.
[2C/	.	4D/	.
.	.	4C/	.
=139	=139	=139	=139
2C/]	0G	1D	0r
2BB-/	.	.	.
2C/	.	1C	.
2E-i\	.	.	.
=140	=140	=140	=140
1D	1F	2r	0r
.	.	2.D/	.
1BB-	1G	.	.
.	.	4E/	.
.	.	[2G/	.
=141	=141	=141	=141
1C	0A	2G/]	0r
.	.	4F#i/	.
.	.	4E/	.
1D	.	1F#i	.
=142	=142	=142	=142
2.GG/	1.B-	1.G	0r
4AA/	.	.	.
2BB-/	.	.	.
2C/	2A/	2E/	.
=143	=143	=143	=143
2D\	1B-	1F	0r
1D	.	.	.
.	[1A	1E	.
2C/	.	.	.
=144	=144	=144	=144
2D\	2A/]	1.D	0r
2.BB-/	2G/	.	.
.	[1G	.	.
4GG/	.	.	.
[2C/	.	[2E/	.
=145	=145	=145	=145
4C/]	1G]	2E/]	0r
4BB-/	.	.	.
2GG/	.	1D	.
1AA	1F#i	.	.
.	.	2C/	.
=146	=146	=146	=146
0GG	1G	0D	0r
.	1r	.	.
=147	=147	=147	=147
0r	0D	0r	0r
=148	=148	=148	=148
0r	1E	0r	0r
.	1F	.	.
=149	=149	=149	=149
0r	2D/	0r	0d
.	1G	.	.
.	2F/	.	.
=150	=150	=150	=150
0r	1G	0r	1e
.	2D/	.	1f
.	2F/	.	.
=151	=151	=151	=151
0r	2G/	0r	2d/
.	2B-\	.	1g
.	1A	.	.
.	.	.	2f#i/
=152	=152	=152	=152
0r	1G	0r	1g
.	1G	.	1g
=153	=153	=153	=153
0r	1B-	0r	1g
.	1c	.	1g
=154	=154	=154	=154
0r	0d	0r	1.f
.	.	.	2d/
=155	=155	=155	=155
0r	1c	0r	1e
.	[1d	.	1f
=156	=156	=156	=156
0r	1d]	0r	1d
.	1G	.	[1b-
=157	=157	=157	=157
0r	1A	0r	2b-\]
.	.	.	2a/
.	1c	.	[1a
=158	=158	=158	=158
0r	0B-	0r	1a]
.	.	.	1g
=159	=159	=159	=159
0r	0A	0r	[0a
=160	=160	=160	=160
0r	1r	0r	0a]
.	1A	.	.
=161	=161	=161	=161
0r	2A/	0r	0r
.	1B-	.	.
.	4A/	.	.
.	4B-\	.	.
=162	=162	=162	=162
0r	4c\	0r	0a
.	4B-\	.	.
.	4A/	.	.
.	4G/	.	.
.	2.F#i/	.	.
.	4E/	.	.
=163	=163	=163	=163
0r	1G	0r	0b-
.	[1d	.	.
=164	=164	=164	=164
0r	2d\]	0r	0a
.	2c\	.	.
.	[1d	.	.
=165	=165	=165	=165
0r	2d\]	0r	1f
.	2A/	.	.
.	1B-	.	1g
=166	=166	=166	=166
0r	2c\	0r	0a
.	1A	.	.
.	2F/	.	.
=167	=167	=167	=167
0r	1G	0r	1b-
.	1A	.	[1a
=168	=168	=168	=168
0r	1D	0r	2a/]
.	.	.	2f/
.	2E/	.	2g/
.	[2D/	.	2a/
=169	=169	=169	=169
0r	2D/]	0r	1d
.	1G	.	.
.	.	.	2e/
.	2F/	.	2f/
=170	=170	=170	=170
0r	2.G/	0r	2d/
.	.	.	1g
.	4A/	.	.
.	2B-\	.	.
.	2c\	.	2a/
=171	=171	=171	=171
0r	1d	0r	2b-\
.	.	.	2a/
.	2e-i\	.	2.cc\
.	[2c\	.	.
.	.	.	4b-\
=172	=172	=172	=172
0r	2c\]	0r	4a/
.	.	.	4g/
.	2B-\	.	1g
.	1A	.	.
.	.	.	2f#i/
=173	=173	=173	=173
0r	0G;	0r	0g;
=174	=174	=174	=174
0r	0r	0r	0r
=175	=175	=175	=175
0D;	0A;	0d;	0f;
=176	=176	=176	=176
0GG;	0B-;	0d;	0g;
=177	=177	=177	=177
0F;	0A;	0c;	0a;
=178	=178	=178	=178
0GG;	0G;	0d;	0b-;
=179	=179	=179	=179
0D;	0F;	0A;	1.a
.	.	.	4g/
.	.	.	4f/
=180	=180	=180	=180
0C;	0G;	0c;	0e;
=181	=181	=181	=181
0GG;l	0G;l	0B-;l	0d;l
!!LO:LB:i:g=z
=182||	=182||	=182||	=182||
*>C	*>C	*>C	*>C
*clefF4	*clefGv2	*clefGv2	*clefG2
*k[b-]	*k[b-]	*k[b-]	*k[b-]
*M2/1	*M2/1	*M2/1	*M2/1
*met(C|)	*met(C|)	*met(C|)	*met(C|)
!!section: Crucifixus
!!!OMD: Crucifixus
0G	0G	[0d	0r
=183	=183	=183	=183
1G	1.G	0d_	0r
[1G	.	.	.
.	2A/	.	.
=184	=184	=184	=184
2G\]	0B-	0d]	0r
4F\	.	.	.
4E\	.	.	.
1D	.	.	.
=185	=185	=185	=185
0C	0c	0e-i	[0g
=186	=186	=186	=186
0G	1B-	[0d	0g]
.	[1G	.	.
=187	=187	=187	=187
0D	2G/]	0d]	0a
.	4F#i/	.	.
.	4E/	.	.
.	1F#i	.	.
=188	=188	=188	=188
0GG	0G	0B-	0g
=189	=189	=189	=189
0C	1.G	1r	0e
.	.	1c	.
.	4F/	.	.
.	4E/	.	.
=190	=190	=190	=190
1.D	0D	1A	1f
.	.	1B-	1d
4C/	.	.	.
4BB-/	.	.	.
=191	=191	=191	=191
1AA	0A	1c	1e
1D	.	1d	1f
=192	=192	=192	=192
0GG	1G	1.B-	0g
.	[1d	.	.
.	.	4A/	.
.	.	4G/	.
=193	=193	=193	=193
1r	2d\]	1F	0a
.	4c\	.	.
.	4B-\	.	.
1D	1A	1F	.
=194	=194	=194	=194
1.D	1r	1.F	0r
.	1D	.	.
2D\	.	2F/	.
=195	=195	=195	=195
1D	1.F	2D/	[0a
.	.	2.d\	.
2D\	.	.	.
.	.	4e\	.
[2D\	2F/	[2f\	.
=196	=196	=196	=196
2D\]	1F	2f\]	0a]
4C/	.	4e\	.
4BB-/	.	4d\	.
1AA	1F	1c	.
=197	=197	=197	=197
[0GG	0G	1B-	[0b-
.	.	2G/	.
.	.	[2d\	.
=198	=198	=198	=198
0GG]	0D	4d\]	0b-]
.	.	4c\	.
.	.	1B-	.
.	.	4A/	.
.	.	4G/	.
=199	=199	=199	=199
[0D	1r	1F	[0a
.	[1d	2D/	.
.	.	[2F/	.
=200	=200	=200	=200
0D]	0d]	2F/]	1a]
.	.	2G/	.
.	.	1A	1f
=201	=201	=201	=201
1G	1d	1B-	1g
2C/	2e\	2c\	[1a
[2D\	[2f\	[2A/	.
=202	=202	=202	=202
2D\]	2f\]	4A/]	2a/]
.	.	4G/	.
2BB-/	4e\	1G	2b-\
.	4d\	.	.
1AA	1c	.	1cc
.	.	2F#i/	.
=203	=203	=203	=203
1GG	2r	1G	1b-
.	2.d\	.	.
1r	.	1D	2a/
.	4c\	.	.
.	[2d\	.	[2b-\
=204	=204	=204	=204
1GG	2d\]	1r	2b-\]
.	4c\	.	4a/
.	4B-\	.	4g/
1D	1A	2r	2.f#i/
.	.	[2d\	.
.	.	.	4e/
=205	=205	=205	=205
1GG	0G	4d\]	0g
.	.	4c\	.
.	.	2d\	.
2C/	.	2e-i\	.
2BB-/	.	[2d\	.
=206	=206	=206	=206
1GG	0r	4d\]	0r
.	.	4c\	.
.	.	1B-	.
1GG	.	.	.
.	.	4A/	.
.	.	4G/	.
=207	=207	=207	=207
1D	0A	4A/	0r
.	.	4G/	.
.	.	4F#i/	.
.	.	4E/	.
2r	.	1F#i	.
2D\	.	.	.
=208	=208	=208	=208
2GG/	1.B-	0G	0r
1G	.	.	.
4F\	2G/	.	.
4E\	.	.	.
=209	=209	=209	=209
2.D\	2B-\	0r	0r
.	1A	.	.
4C/	.	.	.
2D\	.	.	.
2BB-/	[2d\	.	.
=210	=210	=210	=210
1AA	2d\]	0r	0r
.	2c\	.	.
2GG/	2B-\	.	.
[2D\	4A/	.	.
.	4G/	.	.
=211	=211	=211	=211
2D\]	2F/	0r	0r
2E\	2G/	.	.
1F	2A/	.	.
.	[2D/	.	.
=212	=212	=212	=212
2BB-/	2D/]	0r	0r
2C/	2E/	.	.
2D\	2F/	.	.
2GG/	2G/	.	.
=213	=213	=213	=213
2BB-/	2D/	0r	0r
2C/	1G	.	.
1AA	.	.	.
.	2F#i/	.	.
=214	=214	=214	=214
0GG	1G	0r	0r
.	1r	.	.
=215	=215	=215	=215
0r	0r	1d	0r
.	.	1d	.
=216	=216	=216	=216
0r	1G	2e-i\	0r
.	.	1d	.
.	1G	.	.
.	.	2B-\	.
=217	=217	=217	=217
0r	1A	2.c\	1r
.	.	4d\	.
.	[1G	1B-	1g
=218	=218	=218	=218
0r	2G/]	2r	1g
.	2E/	1c	.
.	1F	.	1a
.	.	2A/	.
=219	=219	=219	=219
0r	1E	2B-\	2g/
.	.	2c\	2e/
.	2r	1d	2.f/
.	2D/	.	.
.	.	.	4g/
=220	=220	=220	=220
0r	2A/	2e\	0e
.	2A/	1c	.
.	1A	.	.
.	.	2A/	.
=221	=221	=221	=221
2D\	1D	2.A/	2r
1D	.	.	1f
.	.	4G/	.
.	2r	2A/	.
2BB-/	2d\	2B-\	2d/
=222	=222	=222	=222
2C/	2c\	1A	2e/
2D\	2A/	.	2f/
1GG	2B-\	2G/	1g
.	4A/	[2d\	.
.	4G/	.	.
=223	=223	=223	=223
2r	1.F	2d\]	1a
2D\	.	4c\	.
.	.	4B-\	.
2.F\	.	1A	1r
.	2D/	.	.
4F\	.	.	.
=224	=224	=224	=224
2F\	1D	2r	1.a
2.F\	.	1D	.
.	1r	.	.
4D\	.	.	.
2E\	.	[2G/	2g/
=225	=225	=225	=225
1D	2r	2G/]	1a
.	1d	2F#i/	.
1GG	.	[1G	2.b-\
.	2d\	.	.
.	.	.	4g/
=226	=226	=226	=226
0r	1d	2G/]	2b-\
.	.	2D/	1a
.	2c\	1F	.
.	2A/	.	2f/
=227	=227	=227	=227
0r	2B-\	2E/	2g/
.	2A/	2F/	2.a/
.	2.d\	2D/	.
.	.	.	4g/
.	.	[2G/	[2b-\
.	4c\	.	.
=228	=228	=228	=228
0r	2d\	1G]	2b-\]
.	2B-\	.	4a/
.	.	.	4g/
.	1A	1D	2.f#i/
.	.	.	4e/
=229	=229	=229	=229
1r	0G	1.B-	[0g
1GG	.	.	.
.	.	2G/	.
=230	=230	=230	=230
1GG	0r	0G	0g]
[1C	.	.	.
=231	=231	=231	=231
2C/]	1E	0r	0r
2BB-/	.	.	.
1AA	1F	.	.
=232	=232	=232	=232
2GG/	0G	0r	0r
1C	.	.	.
2BB-/	.	.	.
=233	=233	=233	=233
2C/	1E	0r	0r
2E-i\	.	.	.
1D	1F	.	.
=234	=234	=234	=234
2BB-/	1G	0r	0r
1C	.	.	.
.	2A/	.	.
[2D\	[2B-\	.	.
=235	=235	=235	=235
4D\]	4B-\]	0r	0r
4C/	4A/	.	.
2AA/	1A	.	.
1BB-	.	.	.
.	2G/	.	.
=236	=236	=236	=236
0AA	0A	0r	0r
=237	=237	=237	=237
0r	0r	2.A/	[0a
.	.	4B-\	.
.	.	2c\	.
.	.	[2d\	.
=238	=238	=238	=238
0r	0r	2d\]	0a]
.	.	2c\	.
.	.	1d	.
=239	=239	=239	=239
0r	0r	2r	0b-
.	.	1G	.
.	.	4A/	.
.	.	4B-\	.
=240	=240	=240	=240
0r	0r	2.c\	1a
.	.	4B-\	.
.	.	2c\	1a
.	.	[2d\	.
=241	=241	=241	=241
0r	0r	2d\]	1f
.	.	1B-	.
.	.	.	1g
.	.	4A/	.
.	.	4G/	.
=242	=242	=242	=242
0r	0r	2F/	0a
.	.	1D	.
.	.	2E/	.
=243	=243	=243	=243
0r	0r	1F	1a
.	.	2.G/	[1g
.	.	4A/	.
=244	=244	=244	=244
0r	0r	2B-\	2g/]
.	.	2c\	4f#i/
.	.	.	4e/
.	.	1A	1f#i
=245	=245	=245	=245
*M3/1	*M3/1	*M3/1	*M3/1
*met(O/3)	*met(O/3)	*met(O/3)	*met(O/3)
1r	0.r	0.G	0.g
1.E	.	.	.
2F\	.	.	.
=246	=246	=246	=246
1.G	0.r	0.r	0.r
2G\	.	.	.
1G	.	.	.
=247	=247	=247	=247
1.F	0.r	1r	0.r
.	.	1.A	.
2E\	.	.	.
1D	.	.	.
.	.	2B-\	.
=248	=248	=248	=248
[0.C	0.r	1.c	1r
.	.	.	1.e
.	.	2c\	.
.	.	1c	.
.	.	.	2f/
=249	=249	=249	=249
0.C]	1r	1c	1.g
.	1.E	1c	.
.	.	.	2g/
.	.	1c	1g
.	2F/	.	.
=250	=250	=250	=250
[0.GG	1.G	0.B-	1g
.	.	.	2d/
.	2G/	.	1e
.	1G	.	.
.	.	.	4d/
.	.	.	4c/
=251	=251	=251	=251
0.GG_	1G	0.r	2e/
.	.	.	2.d/
.	1G	.	.
.	.	.	4c/
.	.	.	4B-/
.	.	.	4A/
.	1G	.	1B-
=252	=252	=252	=252
0.GG]	0.G	1d	1G
.	.	1d	1r
.	.	1d	1g
=253	=253	=253	=253
0.r	0A	0c	1f
.	.	.	1.e
.	1G	1B-	.
.	.	.	2d/
=254	=254	=254	=254
0.r	1F	1A	1.d
.	0E	2G/	.
.	.	1G	2c#i/
.	.	.	2c#i/
.	.	4F/	2Bni/
.	.	4G/	.
=255	=255	=255	=255
0D	1.F	0.A	1d
.	.	.	1f
.	2D/	.	.
1C	1E	.	1e
=256	=256	=256	=256
1D	1F	0.D	2r
.	.	.	2A/
0BB-	1.G	.	2B-/
.	.	.	1d
.	2F/	.	4c/
.	.	.	4B-/
=257	=257	=257	=257
1.AA	0A	0.E	1.c
2BB-/	.	.	2d/
1C	1r	.	1e
=258	=258	=258	=258
1.D	0.A	1.D	1.f
4C/	.	2E/	2g/
4BB-/	.	.	.
1AA	.	1F	1a
=259	=259	=259	=259
0.GG	0.B-	0.G	1d
.	.	.	0g
=260	=260	=260	=260
1r	0A	0.D	0f
1r	.	.	.
[1D	1A	.	1f
=261	=261	=261	=261
1D]	1d	0.r	1f
0E-i	2c\	.	1.g
.	1B-	.	.
.	4A/	.	4f/
.	4G/	.	4g/
=262	=262	=262	=262
0D	1F	0d	2a/
.	.	.	1f
.	1.B-	.	.
.	.	.	2d/
1BB-	.	1d	1d
.	2A/	.	.
=263	=263	=263	=263
1C	0G	1e-	1r
2BB-/	.	2d\	1r
2GG/	.	2B-\	.
1AA	1F#i	1c	1a
=264	=264	=264	=264
1GG	1G	1B-	1b-
1r	1D	1.d	2a/
.	.	.	2f/
1r	[1G	.	2g/
.	.	2c\	2d/
=265	=265	=265	=265
1GG	1G]	1B-	2e/
.	.	.	1d
0D	0F	1A	.
.	.	.	4c/
.	.	.	4B-/
.	.	1A	1A
=266	=266	=266	=266
0GG	0G	0.G	1.B-
.	.	.	2G/
1GG	1r	.	1G
=267	=267	=267	=267
1.C	0G	0.r	1r
.	.	.	1e
2BB-/	.	.	.
1AA	1A	.	1f
=268	=268	=268	=268
[0.GG	1.B-	1.d	0g
.	2B-\	2d\	.
.	1B-	[1d	[1g
=269	=269	=269	=269
0.GG]	1B-	1d]	1g]
.	1G	0d	0g
.	1B-	.	.
=270	=270	=270	=270
0.r	1.A	1.c	1.f
.	2B-\	2d\	2g/
.	1c	1e	1a
=271	=271	=271	=271
0.r	1.d	1.f	1.b-
.	2c\	2e\	2a/
.	1e-i	1g	1cc
=272	=272	=272	=272
0.r	1d	1f	1b-
.	1.c	1.e	1.a
.	2B-\	2d\	2g/
=273	=273	=273	=273
0.r	1G	0d	1.g
.	0A	.	.
.	.	.	2f#i/
.	.	1c	2f#i/
.	.	.	2e/
=274	=274	=274	=274
0.GG	[0.Gl	[0.dl	[0.gl
=275	=275	=275	=275
0.GGl	0.G]	0.d]	0.g]
!!LO:LB:i:g=z
=276||	=276||	=276||	=276||
*>D	*>D	*>D	*>D
*clefF4	*clefGv2	*clefGv2	*clefG2
*k[b-]	*k[b-]	*k[b-]	*k[b-]
*M2/1	*M2/1	*M2/1	*M2/1
*met(C|)	*met(C|)	*met(C|)	*met(C|)
!!section: Et in spiritum
!!!OMD: Et in spiritum
0r	0D	0r	0r
=277	=277	=277	=277
1r	1D	0r	0r
1GG	[1G	.	.
=278	=278	=278	=278
1GG	2G/]	0r	0r
.	2G/	.	.
[1C	1G	.	.
=279	=279	=279	=279
2C/]	1G	0r	0r
2C/	.	.	.
[1C	2A/	.	.
.	[2G/	.	.
=280	=280	=280	=280
1C]	4G/]	0r	0r
.	4F/	.	.
.	4E/	.	.
.	4D/	.	.
1C	1E	.	.
=281	=281	=281	=281
0D	1D	0r	0r
.	1r	.	.
=282	=282	=282	=282
1C	0r	0r	0r
1BB-	.	.	.
=283	=283	=283	=283
0AA	0A	0r	0r
=284	=284	=284	=284
0GG	1.B-	0r	0r
.	2G/	.	.
=285	=285	=285	=285
0D	1B-	0r	0r
.	1A	.	.
=286	=286	=286	=286
0E-	1G	0r	0r
.	1c	.	.
=287	=287	=287	=287
0D	2B-\	0r	0r
.	1A	.	.
.	2F/	.	.
=288	=288	=288	=288
1C	2G/	0r	0r
.	2A/	.	.
1BB-	1D	.	.
=289	=289	=289	=289
2GG/	2r	0r	0r
2BB-/	1d	.	.
1AA	.	.	.
.	2c\	.	.
=290	=290	=290	=290
1GG	2B-\	0r	0r
.	2.d\	.	.
1D	.	.	.
.	4c\	.	.
.	4A/	.	.
.	4B-\	.	.
=291	=291	=291	=291
2E\	2c\	0r	0r
1G	2B-\	.	.
.	2G/	.	.
2F\	[2A/	.	.
=292	=292	=292	=292
1D	2A/]	0r	0r
.	1D	.	.
2BB-/	.	.	.
2C/	2E/	.	.
=293	=293	=293	=293
2D\	2D/	0r	0r
2GG/	1G	.	.
1AA	.	.	.
.	2F#i/	.	.
=294	=294	=294	=294
1GG	0G	0r	0r
1r	.	.	.
=295	=295	=295	=295
1GG	0r	0r	0r
1BB-	.	.	.
=296	=296	=296	=296
1C	1E	0r	0r
1D	1F	.	.
=297	=297	=297	=297
2r	0G	0r	0r
1BB-	.	.	.
[2C/	.	.	.
=298	=298	=298	=298
2C/]	0G	0r	0r
4BB-/	.	.	.
4AA/	.	.	.
1GG	.	.	.
=299	=299	=299	=299
2r	1G	0r	0r
1GG	.	.	.
.	1G	.	.
[2C/	.	.	.
=300	=300	=300	=300
2C/]	0G	0r	0r
2BB-/	.	.	.
2C/	.	.	.
2E-i\	.	.	.
=301	=301	=301	=301
2D\	1F	0r	0r
1F	.	.	.
.	1G	.	.
2E\	.	.	.
=302	=302	=302	=302
2F\	1.A	0r	0r
1D	.	.	.
[2G\	2G/	.	.
=303	=303	=303	=303
2G\]	1A	0r	0r
2F\	.	.	.
2G\	1B-	.	.
[2D\	.	.	.
=304	=304	=304	=304
2D\]	2A/	0r	0r
2BB-/	1G	.	.
2C/	.	.	.
2D\	2F#i/	.	.
=305	=305	=305	=305
0GGl	0Gl	0r	0r
!!LO:LB:i:g=z
=306||	=306||	=306||	=306||
*>E	*>E	*>E	*>E
*clefF4	*clefGv2	*clefGv2	*clefG2
*k[b-]	*k[b-]	*k[b-]	*k[b-]
*M2/1	*M2/1	*M2/1	*M2/1
*met(C|)	*met(C|)	*met(C|)	*met(C|)
!!section: Qui cum patre
!!!OMD: Qui cum patre
0r	0r	1A	0r
.	.	1B-	.
=307	=307	=307	=307
0r	0r	0c	3%2eV
.	.	.	3%2f
.	.	.	[3%2gZ
=308	=308	=308	=308
0r	0r	0c	3%2g]V
.	.	.	3%4gZ
=309	=309	=309	=309
0r	0r	0c	3%4gV
.	.	.	[3%2aZ
=310	=310	=310	=310
0r	0r	0d	3%2a]V
.	.	.	3%2g
.	.	.	3%2fZ
=311	=311	=311	=311
0r	0r	1c	3%2eV
.	.	.	3%2r
.	.	1B-	.
.	.	.	3%2fZ
=312	=312	=312	=312
0r	0r	0A	3%2fV
.	.	.	3%2e
.	.	.	[3%2fZ
=313	=313	=313	=313
0r	0r	1B-	3%2f]V
.	.	.	3%4gZ
.	.	1B-	.
=314	=314	=314	=314
!	!	!	!LO:N:vis=0.
0r	0r	0A	0aVZ
=315	=315	=315	=315
0r	0r	1B-	3%2rV
.	.	.	3%2r
.	.	1c	.
.	.	.	[3%2aZ
=316	=316	=316	=316
0r	0r	1d	3%2a]V
.	.	.	3%4b-Z
.	.	1r	.
=317	=317	=317	=317
0r	0r	0d	3%4aV
.	.	.	[3%2aZ
=318	=318	=318	=318
0r	0r	0e-	3%2a]V
.	.	.	3%4gZ
=319	=319	=319	=319
0r	0r	0d	3%2.fV
.	.	.	3g/
.	.	.	3%2aZ
=320	=320	=320	=320
0r	0r	1d	3%2b-V
.	.	.	3%2.a
.	.	1c	.
.	.	.	3g/Z
=321	=321	=321	=321
0r	0r	2B-\	3%4gV
.	.	2G/	.
.	.	1A	.
.	.	.	3%2f#iZ
=322	=322	=322	=322
0r	0r	0G	3%4gV
.	.	.	3%2rZ
=323	=323	=323	=323
0r	0r	1A	3%2eV
.	.	.	3%2f
.	.	1B-	.
.	.	.	[3%2gZ
=324	=324	=324	=324
0r	0r	1.c	3g/]V
.	.	.	3g/
.	.	.	3%2g
.	.	.	3%2rZ
.	.	2c\	.
=325	=325	=325	=325
0r	0r	1B-	3%2rV
.	.	.	3%2g
.	.	1c	.
.	.	.	3%2gZ
=326	=326	=326	=326
0r	0r	1d	3%2fV
.	.	.	3%2.a
.	.	2d\	.
.	.	[2c\	.
.	.	.	3g/Z
=327	=327	=327	=327
0r	0r	2c\]	3%4gV
.	.	2B-\	.
.	.	1A	.
.	.	.	3%2f#iZ
=328	=328	=328	=328
1E	0r	1G	1g
1F	.	1r	1r
=329	=329	=329	=329
0G	1B-	0r	0r
.	1c	.	.
=330	=330	=330	=330
0G	1d	0r	0r
.	2d\	.	.
.	[2d\	.	.
=331	=331	=331	=331
0G	2d\]	0r	0r
.	1d	.	.
.	[2e\	.	.
=332	=332	=332	=332
0A	2e\]	0r	0r
.	1c	.	.
.	4B-\	.	.
.	4A/	.	.
=333	=333	=333	=333
1G	1B-	0r	0r
1F	1A	.	.
=334	=334	=334	=334
0E	1r	0r	0r
.	1e	.	.
=335	=335	=335	=335
0D	1.f	0r	0r
.	2f\	.	.
=336	=336	=336	=336
0A	1f	0r	0r
.	1e	.	.
=337	=337	=337	=337
0B-	2d\	0r	0r
.	1d	.	.
.	4c\	.	.
.	4B-\	.	.
=338	=338	=338	=338
1A	2.c\	0r	0r
.	4d\	.	.
1A	2e\	.	.
.	[2f\	.	.
=339	=339	=339	=339
1A	2f\]	0r	0r
.	2.e\	.	.
1G	.	.	.
.	4d\	.	.
.	4c\	.	.
.	4B-\	.	.
=340	=340	=340	=340
1F	2A/	0r	0r
.	1d	.	.
1G	.	.	.
.	2B-\	.	.
=341	=341	=341	=341
1A	2c\	0r	0r
.	4B-\	.	.
.	4A/	.	.
[1B-	2G/	.	.
.	[2d\	.	.
=342	=342	=342	=342
2B-\]	2d\]	0r	0r
2A\	2c\	.	.
[1G	2e-i\	.	.
.	[2d\	.	.
=343	=343	=343	=343
1G]	2d\]	0r	0r
.	4c\	.	.
.	4B-\	.	.
1F#i	1A	.	.
=344	=344	=344	=344
0G	0G	0r	0r
=345	=345	=345	=345
*M3/1	*M3/1	*M3/1	*M3/1
*met(O/3)	*met(O/3)	*met(O/3)	*met(O/3)
0E	0.r	0.r	0.r
1F	.	.	.
=346	=346	=346	=346
0G	0.r	0.r	0.r
[1G	.	.	.
=347	=347	=347	=347
1G]	0.r	0E	0.r
1C	.	.	.
1D	.	1F	.
=348	=348	=348	=348
1BB-	0.r	0G	0.r
1.C	.	.	.
.	.	[1G	.
2BB-/	.	.	.
=349	=349	=349	=349
1GG	1r	1G]	0.r
0AA	1E	0c	.
.	1F	.	.
=350	=350	=350	=350
1GG	0G	1.B-	0.r
1r	.	.	.
.	.	2G/	.
1r	1F	1A	.
=351	=351	=351	=351
0.r	1G	1B-	1r
.	0A	1.c	1e
.	.	.	1f
.	.	2B-\	.
=352	=352	=352	=352
0.r	0G	0d	0g
.	1G	1d	[1g
=353	=353	=353	=353
0.r	1.c	1e	1g]
.	.	0c	1g
.	2d\	.	.
.	1e	.	1g
=354	=354	=354	=354
0.r	0f	0F	0a
.	1e	1c	1g
=355	=355	=355	=355
0.r	1d	1d	1f
.	1.c#i	0A	0e
.	2Bni\	.	.
=356	=356	=356	=356
1.D	0d	1D	1f
.	.	1r	1f
2BB-/	.	.	.
1C	1c	1r	1e
=357	=357	=357	=357
1D	1A	0.r	1f
0GG	1.B-	.	1.g
.	2A/	.	2f/
=358	=358	=358	=358
[0.D	0F	0.r	[0.a
.	1r	.	.
=359	=359	=359	=359
0.D]	1D	[0.d	0a]
.	1.F	.	.
.	.	.	1r
.	4G/	.	.
.	4A/	.	.
=360	=360	=360	=360
0.r	0B-	0d]	1d
.	.	.	1.f
.	1A	1c	.
.	.	.	4g/
.	.	.	4a/
=361	=361	=361	=361
0.r	1d	1G	1b-
.	1.c	1A	1.a
.	.	1F	.
.	2B-\	.	2g/
=362	=362	=362	=362
0.r	1G	1G	0g
.	0A	0D	.
.	.	.	1f#i
=363	=363	=363	=363
0.r	0.G	0.d	[0.g
=364	=364	=364	=364
0G	0.r	0.d	0.g]
1G	.	.	.
=365	=365	=365	=365
1.A	0.r	0.r	0.r
2G\	.	.	.
1F	.	.	.
=366	=366	=366	=366
1.E	0.r	0G	0.r
2D\	.	.	.
1E	.	1G	.
=367	=367	=367	=367
1F	0.r	1.A	0.r
0D	.	.	.
.	.	2G/	.
.	.	1F	.
=368	=368	=368	=368
0.C	0G	1.E	0.r
.	.	2D/	.
.	1G	1E	.
=369	=369	=369	=369
0.r	1.A	1F	0.r
.	.	0D	.
.	2G/	.	.
.	1F	.	.
=370	=370	=370	=370
0AA	0E	0.C	0.r
1AA	1r	.	.
=371	=371	=371	=371
0D	1F	0.r	0.r
.	1F	.	.
1C	1E	.	.
=372	=372	=372	=372
1AA	1F	0.r	0.r
0BB-	1.G	.	.
.	2F/	.	.
=373	=373	=373	=373
0AA	0A	0.r	0.r
1AA	1r	.	.
=374	=374	=374	=374
1.D	1.A	0.r	0.r
2E\	2G/	.	.
1F	1A	.	.
=375	=375	=375	=375
2G\	1B-	0.r	0.r
1D	.	.	.
.	1.A	.	.
2C/	.	.	.
2D\	.	.	.
[2BB-/	2G/	.	.
=376	=376	=376	=376
2BB-/]	0G	0.r	0.r
2C/	.	.	.
2BB-/	.	.	.
2GG/	.	.	.
1AA	1F#i	.	.
=377	=377	=377	=377
0.GG	1G	0G	0g
.	1r	.	.
.	1r	1G	[1g
=378	=378	=378	=378
0.r	0.r	1.E	1g]
.	.	.	0e
.	.	2F/	.
.	.	1G	.
=379	=379	=379	=379
0.r	0.r	1A	0f
.	.	0D	.
.	.	.	1f
=380	=380	=380	=380
0.r	0.r	0d	1d
.	.	.	0e
.	.	1c#i	.
=381	=381	=381	=381
0.r	1r	0.d	0d
.	1D	.	.
.	[1F	.	1r
=382	=382	=382	=382
0.r	2F/]	0.r	1d
.	2G/	.	.
.	1A	.	1.f
.	1B-	.	.
.	.	.	2g/
=383	=383	=383	=383
0.r	1A	0.r	1a
.	0d	.	1.b-
.	.	.	2a/
=384	=384	=384	=384
0.r	1c	0.r	0a
.	0B-	.	.
.	.	.	1g
=385	=385	=385	=385
0.r	0A	0.r	0a
.	1r	.	1r
=386	=386	=386	=386
0.r	0c	0e	0a
.	1B-	1d	1g
=387	=387	=387	=387
0.r	1G	1Bni	1e
.	0A	0c	0f
=388	=388	=388	=388
0G	0.G	1d	0.g
.	.	1Bni	.
1E	.	1c	.
=389	=389	=389	=389
1F	0.D	0d	1.a
0D	.	.	.
.	.	.	2g/
.	.	1d	1f
=390	=390	=390	=390
1AA	0A	1c	1e
1D	.	1d	1.f
1E	1G	1Bni	.
.	.	.	2e/
=391	=391	=391	=391
1C	1E	1c	0e
0D	0F	0A	.
.	.	.	1d
=392	=392	=392	=392
0.AAl	0.El	0.Al	0.el
==	==	==	==
*-	*-	*-	*-
!!!RDF**kern: l=long note in original notation
!!!RDF**kern: i=editorial accidental
!!!RDF**kern: V=start of tuplet marker
!!!RDF**kern: Z=end of tuplet marker
!!!ENC:	Jesse Rodin; Victoria Chang 2012/01/31
!!!END:	2012/01/31/
!!!EED:	Jesse Rodin
!!!EEV:	2012/07/26/
!!attribution-level@Jos: 3 (tricky)
!!!ONB:	Translated from MusicXML and edited on 2012/07/26/ by Craig Sapp
!!muse2ps: C^@{COA}?\n@{SCT}^i2I150v85,85,85,150Q16c80
